X:15
T:Quadriglia
C:Pietro Tavani
C:Balli popolari in Abruzzo II/18
M:6/8
L:1/8
K:G
d ded|BGB ded|~c2A ded|~c2A ded|~B2G ded|\
BGB ded|~c2A ded|fed cBA|1 G2:|2 G3||
|:DDD|GDG BGB|~c2A ded|~c2A ded|~B2G DDD|\
GDG BGB|~c2A ded|fed cBA|1 G3:|2 G2||
d ded|{d}g2d ded|{e}f2d ded|fed fed|{d}g2d ded|\
{d}g2d ded|{e}f2d ded|fed cBA|G3-G2||
|:d|dcB BAG|F2d d3|F2d d2d|(3ege d B2d|\
dcB BAG|F2d ded|fed cBA|1 G3-G2:|2 G2||
